X: 1
T: Mitt Pautr\"ask
C: S\"oren Rydgren
R: waltz
M: 3/4
L: 1/8
K: Cm
P: A
|: "G7"G2 \
| "Cm"[c2E2] [d2F2] [e2G2] \
| [e2G2] [d3F3] [cE] \
| "Fm"[BD][=A_D] [_A4-C4-] \
| [A4C4] [A2C2] \
| "G7"[G2=B,2] [D2B,2] [E2C2] \
| [F2D2] [G2E2] [A2F2] \
| "Cm"[AF][GE] [G4-E4-] \
| [G4E4] "G7"G2 |
| "Cm"[c2E2] [d2F2] [e2G2] \
| [e2G2] [d3F3] [cE] \
| "Fm"[BD][=A_D] [_A4-C4-] \
| [A4C4] [A2C2] \
| "G7"[G2=B,2] [D2B,2] [E2C2] \
| [F2=B,2] [E2G,2] [D2F,2] \
| "Cm"[DF,][CE,] [C4-E,4-] \
| [C4E,4] :|
P: B
|| c2 \
| "G7"c=B B4- \
| B2 =B2 e2 \
| "Cm"dc c4 \
| c2 c2 [e2] \
| "Fm"[eA6]d d4 \
| "Fdim"[e=A6]d d4 \
| "G7"[e=B6]d "rit."d4 \
| "da Capo"[g2G2] G2 G2 ||
P: A
| "Cm"[c2E2] [d2F2] [e2G2] \
| [e2G2] [d3F3] [cE] \
| "Fm"[BD][=A_D] [_A4-C4-] \
| [A4C4] [A2C2] \
| "G7"[G2=B,2] [D2B,2] [E2C2] \
| [F2D2] [G2E2] [A2F2] \
| "Cm"[AF][GE] [G4-D4-] \
| [G4D4] "G7"G2 |
| "Cm"[c2E2] [d2F2] [e2G2] \
| [e2G2] [d3F3] [cE] \
| "Fm"[BD][=A_D] [_A4-C4-] \
| [A4C4] [A2C2] \
| "G7"[G2=B,2] [D2B,2] [E2C2] \
| [F2=B,2] E2 D2 \
| "Cm"DC C4 \
| "Bbb7"B,2 [B2B,2] B,2 ||
P: C
|| "Eb"B,2 [E2B,2] [G2D2] \
| "Bbdim"[B2_D6] A3 G \
| "Fm"F>c c4- \
| [c2A2F2] [c3A3] [ec] \
| "Bb7"[ec]>[dB] [d3B3] F \
| [dB]>[cA] [c2-F2] [c2^F2] \
| "Eb"[cG6]>B B4 \
| "Bb7" Bc BA GF |
| "Eb"B,2 [E2B,2] [G2D2] \
| "Bbdim"[B2_D6] A3 G \
| "Fm"F>c c4 \
| "Ebdim"[e2=A6] d2 c2 \
| "Eb"B4 =A2 \
| "Fm"_A2 c2 "Bb7"D2 \
| "Eb"E6- \
|1,3 E2 B,B, B,2 :|\
:|2,4 E2 "fine"z4 |]
